X: 622
T: Gonggunr kuqi
L: 1/8
M: 2/4
K: F
d d/ d/ d d [I:setbarnb 1]| 
f fc2 | 
d/ f/ d/ c/ B B | 
d d G/ A/ G/ F/ | 
G4 | 
A A c c | 
d> d d d | 
G/ A/ G/ F/ E z | 
Ez3 | 
z2F2- | 
F G A c/ A/ | 
G3F | 
D/ D/ D/ D/ G/ F/ D | 
C4 |]

@@@ Tune index: 9496
